X:908
T:Anglais efter Per Nilsson Dahlberg
T:(SvL Skåne nr. 214)
S:efter Per Nilsson Dahlberg
S:Svenska Låtar Skåne nr 214
B:Svenska Låtar Skåne
R:Anglais
Z:Patrik Månsson, 2009-01-03
O:Nymö, Skåne
M:2/4
L:1/16
K:A
|: a2aa (ab)(ea) | (ce)A2 c2e2 | b2bb bc'd'b | (ge)fg a4 :|
|: ABcd !trill!f2e2 | (dc)Ac e4 | B2Bc d2dB | (GE)FG A4 :|


(:musicend:)

(:music:)
